X:1
T:Title
%%score 1 2
L:1/8
M:3/2
K:C
V:1 treble nm="Part_1"
V:2 treble-8 nm="Part_2"
V:1
 C2 C2 D2 F2 E2 DE | F8 z4 | F4 F4 F2 FF | G2 E4 D2 E2 F2 | G2 FG E2 C2 D4 | C3 D E2 F2 E2 DE | %6
 F2 E2 DC C4 B,2 |[M:4/2] C16 ||[M:3/2] F8 F4 | G4 A6 G2 | G2 FG E2 G2 F2 EF |[M:4/2] G16 || %12
[M:3/2] z4 F4 G4 | A4 G2 c4 B2 | G2 A2 G2 E2 FE F2 |[M:4/2] G16 ||[M:3/2] z4 z4 F4 | G4 A6 G2 | %18
 (3:2:5G8 F2 G2 F4 E2 |[M:4/2] G16 ||[M:3/2] z4 z4 F4 | (3:2:2G4 A2 z8/3 (3B2 A4 B2 | %22
 (3:2:2G4 F2 z8/3 (3:2:5A2 G2 FG F2 |[M:4/2] G16 ||[M:3/2] z4 z4 E4 | D8 F4 | E4 A4 B2 A2 | %27
 A4 AG A2 G2 F2 | A4 z2 G3 E F2 | D4 G2 G4 F2 | G4 E3 C D2 F2 | E4 F2 G4 A2 | G3 E F2 D2 D2 E2 | %33
 G2 A3 G G4 F2 |[M:4/2] G16 |] %35
V:2
 C4 F2 A2 G4 | F4 F4 F4 | A4 A4 D2 DD | C4 G3 F G2 A2 | G2 c2 Bc A2 B2 AB | c4 B2 A2 G4 | %6
 F2 G2 E2 F2 D4 |[M:4/2] C16 ||[M:3/2] F8 A4 | B4 c8 | B4 A8 |[M:4/2] !fermata!G16 || %12
[M:3/2] F8 B4 | c8 d4 | B4 c4 A4 |[M:4/2] !fermata!G16 ||[M:3/2] z4 z4 A4 | G4 c6 B2 | %18
 B4 c2 G2 A4 |[M:4/2] G16 ||[M:3/2] z4 z4 A4 | G8 c4 | B8 A4 |[M:4/2] !fermata!G16 || %24
[M:3/2] z4 z4 c4 | d8 d4 | c4 A4 G4 | c4 d2 A2 B4 | A4 z4 c2 d2- | d2 B3 G B2 A4 | %30
 G2 c3 B c2 B2 A2 | c2 A4 G2 B2 A2- | AB c2 d4 c2 G2- | G2 D2 G2 B2 A4 |[M:4/2] G16 |] %35

